Origami/64x64/apps/webtorrent-desktop.svg

<svg width="64" height="64" version="1" xmlns="http://www.w3.org/2000/svg">
 <path d="m32.155597 4.0017289a6.5946984 6.3671019 0 0 0 -3.453947 0.8493869l-19.4043 10.816633a6.5946984 6.3671019 0 0 0 -3.2973492 5.513915v21.633667a6.5946984 6.3671019 0 0 0 3.2973492 5.513915l19.4049 10.816834a6.5946984 6.3671019 0 0 0 6.594699 0l19.404901-10.816834a6.5946984 6.3671019 0 0 0 3.297949 -5.515915v-21.633667a6.5946984 6.3671019 0 0 0 -3.297949 -5.513915l-19.403701-10.816633a6.5946984 6.3671019 0 0 0 -3.141952 -0.8493869z" style="fill:#4f4f4f"/>
 <g transform="matrix(.0814543 0 0 .08867279 14.000277 15.432354)" style="opacity:.2">
  <path d="m314.02 17.679c-36.879 0-70.09 17.27-93.344 43.499-23.26-26.229-56.47-43.499-93.35-43.499-70.322 0-127.33 59.675-127.33 133.29 0 19.779 3.338 38.813 9.184 56.989 0 0 5.301 16.4 9.997 25.428 53.671 115.43 201.49 190.28 201.49 190.28s147.82-74.852 201.49-190.28 6.925-15.38 9.997-25.428c5.582-18.26 9.184-37.21 9.184-56.989 0-73.615-57.008-133.29-127.33-133.29z"/>
 </g>
 <g transform="matrix(.0814543 0 0 .08867279 14.000277 14.431873)" style="fill:#f25b6f">
  <path d="m314.02 17.679c-36.879 0-70.09 17.27-93.344 43.499-23.26-26.229-56.47-43.499-93.35-43.499-70.322 0-127.33 59.675-127.33 133.29 0 19.779 3.338 38.813 9.184 56.989 0 0 5.301 16.4 9.997 25.428 53.671 115.43 201.49 190.28 201.49 190.28s147.82-74.852 201.49-190.28 6.925-15.38 9.997-25.428c5.582-18.26 9.184-37.21 9.184-56.989 0-73.615-57.008-133.29-127.33-133.29z"/>
 </g>
 <path d="m32.15625 4.0019531a6.5947745 6.3719333 0 0 0 -3.453125 0.8515625l-19.40625 10.824218a6.5947745 6.3719333 0 0 0 -3.296875 5.519532v1.001953a6.5947745 6.3719333 0 0 1 3.296875 -5.521485l19.40625-10.824218a6.5947745 6.3719333 0 0 1 3.453125 -0.8515625 6.5947745 6.3719333 0 0 1 3.140625 0.8515625l19.40625 10.824218a6.5947745 6.3719333 0 0 1 3.296875 5.521485v-1.001953a6.5947745 6.3719333 0 0 0 -3.296875 -5.519532l-19.40625-10.824218a6.5947745 6.3719333 0 0 0 -3.140625 -0.8515625z" style="fill:#ffffff;opacity:.1"/>
 <path d="m6 41.800859a6.5946984 6.3721235 0 0 0 0.00195 0.07422v-0.07422h-0.00195zm0.00195 1v1a6.5946984 6.3721235 0 0 0 3.296875 5.517578l19.406253 10.828125a6.5946984 6.3721235 0 0 0 6.59375 0l19.404297-10.828125a6.5946984 6.3721235 0 0 0 3.296875 -5.517578v-1a6.5946984 6.3721235 0 0 1 -3.296875 5.517578l-19.404297 10.828125a6.5946984 6.3721235 0 0 1 -6.59375 0l-19.40625-10.828125a6.5946984 6.3721235 0 0 1 -3.296875 -5.517578z" style="opacity:.2"/>
</svg>

<svg xmlns="http://www.w3.org/2000/svg" width="64" height="64" version="1">
 <path style="fill:#4f4f4f" d="M 32.155597,4.0017289 A 6.5946984,6.3671019 0 0 0 28.70165,4.8511158 L 9.2973497,15.667749 a 6.5946984,6.3671019 0 0 0 -3.2973492,5.513915 l 0,21.633667 a 6.5946984,6.3671019 0 0 0 3.2973492,5.513915 L 28.70225,59.14608 a 6.5946984,6.3671019 0 0 0 6.594699,0 L 54.70185,48.329246 a 6.5946984,6.3671019 0 0 0 3.297949,-5.515915 l 0,-21.633667 A 6.5946984,6.3671019 0 0 0 54.70185,15.665749 L 35.298149,4.8491158 A 6.5946984,6.3671019 0 0 0 32.156197,3.9997289 Z"/>
 <g style="opacity:0.2" transform="matrix(0.0814543,0,0,0.08867279,14.000277,15.432354)">
  <g>
   <path d="m 314.02,17.679 c -36.879,0 -70.09,17.27 -93.344,43.499 -23.26,-26.229 -56.47,-43.499 -93.35,-43.499 -70.322,0 -127.33,59.675 -127.33,133.29 0,19.779 3.338,38.813 9.184,56.989 0,0 5.301,16.4 9.997,25.428 53.671,115.43 201.49,190.28 201.49,190.28 0,0 147.82,-74.852 201.49,-190.28 53.67,-115.428 6.925,-15.38 9.997,-25.428 5.582,-18.26 9.184,-37.21 9.184,-56.989 0,-73.615 -57.008,-133.29 -127.33,-133.29 z"/>
  </g>
 </g>
 <g style="fill:#f25b6f" transform="matrix(0.0814543,0,0,0.08867279,14.000277,14.431873)">
  <g>
   <path d="m 314.02,17.679 c -36.879,0 -70.09,17.27 -93.344,43.499 -23.26,-26.229 -56.47,-43.499 -93.35,-43.499 -70.322,0 -127.33,59.675 -127.33,133.29 0,19.779 3.338,38.813 9.184,56.989 0,0 5.301,16.4 9.997,25.428 53.671,115.43 201.49,190.28 201.49,190.28 0,0 147.82,-74.852 201.49,-190.28 53.67,-115.428 6.925,-15.38 9.997,-25.428 5.582,-18.26 9.184,-37.21 9.184,-56.989 0,-73.615 -57.008,-133.29 -127.33,-133.29 z"/>
  </g>
 </g>
 <path style="opacity:0.1;fill:#ffffff" d="M 32.15625 4.0019531 A 6.5947745 6.3719333 0 0 0 28.703125 4.8535156 L 9.296875 15.677734 A 6.5947745 6.3719333 0 0 0 6 21.197266 L 6 22.199219 A 6.5947745 6.3719333 0 0 1 9.296875 16.677734 L 28.703125 5.8535156 A 6.5947745 6.3719333 0 0 1 32.15625 5.0019531 A 6.5947745 6.3719333 0 0 1 35.296875 5.8535156 L 54.703125 16.677734 A 6.5947745 6.3719333 0 0 1 58 22.199219 L 58 21.197266 A 6.5947745 6.3719333 0 0 0 54.703125 15.677734 L 35.296875 4.8535156 A 6.5947745 6.3719333 0 0 0 32.15625 4.0019531 z"/>
 <path style="opacity:0.2" d="m 6,41.800859 a 6.5946984,6.3721235 0 0 0 0.00195,0.07422 l 0,-0.07422 -0.00195,0 z m 0.00195,1 0,1 a 6.5946984,6.3721235 0 0 0 3.296875,5.517578 L 28.705078,60.146562 a 6.5946984,6.3721235 0 0 0 6.59375,0 L 54.703125,49.318437 A 6.5946984,6.3721235 0 0 0 58,43.800859 l 0,-1 a 6.5946984,6.3721235 0 0 1 -3.296875,5.517578 L 35.298828,59.146562 a 6.5946984,6.3721235 0 0 1 -6.59375,0 L 9.2988281,48.318437 a 6.5946984,6.3721235 0 0 1 -3.296875,-5.517578 z"/>
</svg>
